X: 468
%
U:~=!turn!
T: Mrs. Fleming of Moness
C:Neil Gow
O:Scotland
B:Keith Norman MacDonald : "The Skye collection of the best reels & strathspeys extant" : 1887
Z:Ralph Palmer
R:Strathspey
M:C
L:1/8
K:Bb
F | DB,DF TB2 (c/B/).A/.G/ | FB, (G/F/E/D/ E)CCF | DB,DF {/c}TB2 AG | (A/B/c) F>A BB,-B, ::
d | Bfd<f B<fd<f FcA<c F<cA<c | B<fd<f B<fd<f | (b/a/g/f/) ge dB-B ::
!f!F | D>B,F>B, G>B,F>B, | D>B, (G/F/E/D/ E)C-C>F | D>B,F>B, G>B,F>A | (BGTFE) DB,-B, ::
!p!g | f<B (d/c/B) f>Bb>B | f<B (e/d/c/B/) cGG>e | f<B (e/d/).c/.B/ f<Bb>B | .AT.G(FE) DB,-B, :|


